public/expand-full-page.svg

<?xml version="1.0" encoding="UTF-8" standalone="no"?>
<!DOCTYPE svg PUBLIC "-//W3C//DTD SVG 1.1//EN" "http://www.w3.org/Graphics/SVG/1.1/DTD/svg11.dtd">
<!-- Created with Vectornator (http://vectornator.io/) -->
<svg height="100%" stroke-miterlimit="10" style="fill-rule:nonzero;clip-rule:evenodd;stroke-linecap:round;stroke-linejoin:round;" version="1.1" viewBox="0 0 24 24" width="100%" xml:space="preserve" xmlns="http://www.w3.org/2000/svg" xmlns:vectornator="http://vectornator.io" xmlns:xlink="http://www.w3.org/1999/xlink">
<defs/>
<g id="Untitled" vectornator:layerName="Untitled">
<path d="M1.81756 7.70761C1.81756 8.25182 2.25874 8.69301 2.80296 8.69301C3.34717 8.69301 3.78835 8.25182 3.78835 7.70761L1.81756 7.70761ZM3.78835 2.80296C3.78835 2.25874 3.34717 1.81756 2.80296 1.81756C2.25874 1.81756 1.81756 2.25874 1.81756 2.80296L3.78835 2.80296ZM2.80296 1.81756C2.25874 1.81756 1.81756 2.25874 1.81756 2.80296C1.81756 3.34717 2.25874 3.78835 2.80296 3.78835L2.80296 1.81756ZM7.70761 3.78835C8.25182 3.78835 8.69301 3.34717 8.69301 2.80296C8.69301 2.25874 8.25182 1.81756 7.70761 1.81756L7.70761 3.78835ZM3.49974 2.10617C3.11492 1.72136 2.49099 1.72136 2.10617 2.10617C1.72136 2.49099 1.72136 3.11492 2.10617 3.49974L3.49974 2.10617ZM8.67549 10.069C9.06036 10.4538 9.68418 10.4538 10.069 10.069C10.4538 9.68418 10.4538 9.06036 10.069 8.67549L8.67549 10.069ZM16.2924 20.2116C15.7482 20.2116 15.307 20.6528 15.307 21.197C15.307 21.7412 15.7482 22.1824 16.2924 22.1824L16.2924 20.2116ZM21.197 22.1824C21.7412 22.1824 22.1824 21.7412 22.1824 21.197C22.1824 20.6528 21.7412 20.2116 21.197 20.2116L21.197 22.1824ZM20.2116 21.197C20.2116 21.7412 20.6528 22.1824 21.197 22.1824C21.7412 22.1824 22.1824 21.7412 22.1824 21.197L20.2116 21.197ZM22.1824 16.2924C22.1824 15.7482 21.7412 15.307 21.197 15.307C20.6528 15.307 20.2116 15.7482 20.2116 16.2924L22.1824 16.2924ZM20.5003 21.8938C20.8851 22.2786 21.509 22.2786 21.8938 21.8938C22.2786 21.509 22.2786 20.8851 21.8938 20.5003L20.5003 21.8938ZM15.3245 13.931C14.9396 13.5462 14.3158 13.5462 13.931 13.931C13.5462 14.3158 13.5462 14.9396 13.931 15.3245L15.3245 13.931ZM3.78835 16.2924C3.78835 15.7482 3.34717 15.307 2.80296 15.307C2.25874 15.307 1.81756 15.7482 1.81756 16.2924L3.78835 16.2924ZM1.81756 21.197C1.81756 21.7412 2.25874 22.1824 2.80296 22.1824C3.34717 22.1824 3.78835 21.7412 3.78835 21.197L1.81756 21.197ZM2.80296 20.2116C2.25874 20.2116 1.81756 20.6528 1.81756 21.197C1.81756 21.7412 2.25874 22.1824 2.80296 22.1824L2.80296 20.2116ZM7.70761 22.1824C8.25182 22.1824 8.69301 21.7412 8.69301 21.197C8.69301 20.6528 8.25182 20.2116 7.70761 20.2116L7.70761 22.1824ZM2.10617 20.5003C1.72136 20.8851 1.72136 21.509 2.10617 21.8938C2.49099 22.2786 3.11492 22.2786 3.49974 21.8938L2.10617 20.5003ZM10.069 15.3245C10.4538 14.9396 10.4538 14.3158 10.069 13.931C9.68418 13.5462 9.06036 13.5462 8.67549 13.931L10.069 15.3245ZM16.2924 1.81756C15.7482 1.81756 15.307 2.25874 15.307 2.80296C15.307 3.34717 15.7482 3.78835 16.2924 3.78835L16.2924 1.81756ZM21.197 3.78835C21.7412 3.78835 22.1824 3.34717 22.1824 2.80296C22.1824 2.25874 21.7412 1.81756 21.197 1.81756L21.197 3.78835ZM22.1824 2.80296C22.1824 2.25874 21.7412 1.81756 21.197 1.81756C20.6528 1.81756 20.2116 2.25874 20.2116 2.80296L22.1824 2.80296ZM20.2116 7.70761C20.2116 8.25182 20.6528 8.69301 21.197 8.69301C21.7412 8.69301 22.1824 8.25182 22.1824 7.70761L20.2116 7.70761ZM21.8938 3.49974C22.2786 3.11492 22.2786 2.49099 21.8938 2.10617C21.509 1.72136 20.8851 1.72136 20.5003 2.10617L21.8938 3.49974ZM13.931 8.67549C13.5462 9.06036 13.5462 9.68418 13.931 10.069C14.3158 10.4538 14.9396 10.4538 15.3245 10.069L13.931 8.67549ZM3.78835 7.70761L3.78835 2.80296L1.81756 2.80296L1.81756 7.70761L3.78835 7.70761ZM2.80296 3.78835L7.70761 3.78835L7.70761 1.81756L2.80296 1.81756L2.80296 3.78835ZM2.10617 3.49974L8.67549 10.069L10.069 8.67549L3.49974 2.10617L2.10617 3.49974ZM16.2924 22.1824L21.197 22.1824L21.197 20.2116L16.2924 20.2116L16.2924 22.1824ZM22.1824 21.197L22.1824 16.2924L20.2116 16.2924L20.2116 21.197L22.1824 21.197ZM21.8938 20.5003L15.3245 13.931L13.931 15.3245L20.5003 21.8938L21.8938 20.5003ZM1.81756 16.2924L1.81756 21.197L3.78835 21.197L3.78835 16.2924L1.81756 16.2924ZM2.80296 22.1824L7.70761 22.1824L7.70761 20.2116L2.80296 20.2116L2.80296 22.1824ZM3.49974 21.8938L10.069 15.3245L8.67549 13.931L2.10617 20.5003L3.49974 21.8938ZM16.2924 3.78835L21.197 3.78835L21.197 1.81756L16.2924 1.81756L16.2924 3.78835ZM20.2116 2.80296L20.2116 7.70761L22.1824 7.70761L22.1824 2.80296L20.2116 2.80296ZM20.5003 2.10617L13.931 8.67549L15.3245 10.069L21.8938 3.49974L20.5003 2.10617Z" fill="#efefef" fill-rule="nonzero" opacity="1" stroke="none" vectornator:layerName="path"/>
</g>
</svg>

<svg xmlns="http://www.w3.org/2000/svg" xmlns:vectornator="http://vectornator.io" xml:space="preserve" stroke-miterlimit="10" style="fill-rule:nonzero;clip-rule:evenodd;stroke-linecap:round;stroke-linejoin:round" viewBox="0 0 24 24"><g vectornator:layerName="Untitled"><path vectornator:layerName="path" fill="#efefef" d="M1.818 7.708a.985.985 0 0 0 1.97 0h-1.97Zm1.97-4.905a.985.985 0 1 0-1.97 0h1.97Zm-.985-.985a.985.985 0 0 0 0 1.97v-1.97Zm4.905 1.97a.985.985 0 0 0 0-1.97v1.97ZM3.5 2.106A.985.985 0 0 0 2.106 3.5L3.5 2.106Zm5.175 7.963a.985.985 0 0 0 1.394-1.394L8.675 10.07Zm7.617 10.143a.985.985 0 0 0 0 1.97v-1.97Zm4.905 1.97a.985.985 0 0 0 0-1.97v1.97Zm-.985-.985a.985.985 0 0 0 1.97 0h-1.97Zm1.97-4.905a.985.985 0 0 0-1.97 0h1.97ZM20.5 21.894a.985.985 0 0 0 1.394-1.394L20.5 21.894Zm-5.175-7.963a.985.985 0 0 0-1.394 1.394l1.394-1.394ZM3.787 16.292a.985.985 0 0 0-1.97 0h1.97Zm-1.97 4.905a.985.985 0 0 0 1.97 0h-1.97Zm.985-.985a.985.985 0 0 0 0 1.97v-1.97Zm4.905 1.97a.985.985 0 0 0 0-1.97v1.97ZM2.106 20.5A.985.985 0 1 0 3.5 21.894L2.106 20.5Zm7.963-5.175a.985.985 0 0 0-1.394-1.394l1.394 1.394Zm6.223-13.507a.985.985 0 0 0 0 1.97v-1.97Zm4.905 1.97a.985.985 0 0 0 0-1.97v1.97Zm.985-.985a.985.985 0 0 0-1.97 0h1.97Zm-1.97 4.905a.985.985 0 0 0 1.97 0h-1.97ZM21.894 3.5A.985.985 0 0 0 20.5 2.106L21.894 3.5ZM13.93 8.675a.985.985 0 0 0 1.394 1.394L13.93 8.675ZM3.788 7.708V2.803h-1.97v4.905h1.97Zm-.985-3.92h4.905v-1.97H2.803v1.97ZM2.106 3.5l6.57 6.569 1.393-1.394-6.57-6.569L2.107 3.5Zm14.186 18.682h4.905v-1.97h-4.905v1.97Zm5.89-.985v-4.905h-1.97v4.905h1.97Zm-.288-.697-6.57-6.569-1.393 1.394 6.57 6.569 1.393-1.394ZM1.818 16.292v4.905h1.97v-4.905h-1.97Zm.985 5.89h4.905v-1.97H2.803v1.97Zm.697-.288 6.569-6.57-1.394-1.393-6.569 6.57L3.5 21.893ZM16.292 3.788h4.905v-1.97h-4.905v1.97Zm3.92-.985v4.905h1.97V2.803h-1.97Zm.288-.697-6.569 6.57 1.394 1.393 6.569-6.57L20.5 2.107Z"/></g></svg>
